X: 20771
M: 6/8
L: 1/8
K: Am
c2A AGA | E2A ABc | B2G GBc | dBG GAB |\
c2A AGA | E2A A2e | edc BAB | [E2A2]A A2 :|
|: c |\


